N5 (File Name = motor_plate_outline on Monday, February 14, 2011)
N10 (Default Mill Post)
N15  G91.1
N20 G0  Z1.0000 
N25 M3 
N30  X17.2861  Y6.9057 
N35  Z0.1000 
N40 G1  Z0.0000  F100.00 
N45 G2  X17.2861  Y50.2443  I4.9389  J21.6693 
N50 G1  X44.4500  Y56.4355   
N55 G2  X44.4500  Y0.7145  I6.3500  J-27.8605 
N60 G1  X17.2862  Y6.9058   
N65 G0  Z1.0000 
N70  X60.3283  Y26.4629 
N75  Z0.1000 
N80 G1  Z0.0000  
N85 G2  X52.3490  Y21.8560  I-6.2931  J1.6862 
N90 G3  X49.2510  Y21.8560  I-1.5490  J-5.7810 
N95 G2  X45.8786  Y34.4422  I-1.6862  J6.2931 
N100  X55.7215  Y34.4422  I4.9215  J-18.3672 
N105  X60.3283  Y26.4629  I-1.6862  J-6.2931 
N110 G0  Z1.0000 
N115  X56.9418  Y38.9964 
N120  Z0.1000 
N125 G1  Z0.0000  
N130 G3  X57.5992  Y41.4498  I0.3287  J1.2267 
N135  X44.0008  Y41.4499  I-6.7992  J-25.3749 
N140  X44.6582  Y38.9964  I0.3287  J-1.2267 
N145 G2  X56.9418  Y38.9964  I6.1418  J-22.9214 
N150 G0  Z1.0000 
N155 M5
N160 M30

