N5 (File Name = motor_plate2 on Friday, February 18, 2011)
N10 (Default Mill Post)
N15  G91.1
N20 G0  Z1.0000

N25 M3 
N30  X-15.8750  Y0.0000
N35  Z0.1000 

( *** drill hole pattern *** )

M1 ( Insert Center Drill Bit )

N90 G81 X-15.8750 Y0.0000  Z-0.2500  R1.0000  F60.00
N91 G81 X-11.2253 Y11.2253
N92 G81 X0.0000   Y15.8750
N93 G81 X11.2253  Y11.2253
N94 G81 X15.8750 Y0.0000
N95 G81 X11.2253 Y-11.2253
N96 G81 X0.0000   Y-15.8750
N97 G81 X-11.2253 Y-11.2253

N98 G80

M1 ( Insert Drill Bit )

N90 G81 X-15.8750 Y0.0000  Z-3.2500  R1.0000  F60.00
N91 G81 X-11.2253 Y11.2253
N92 G81 X0.0000   Y15.8750
N93 G81 X11.2253  Y11.2253
N94 G81 X15.8750 Y0.0000
N95 G81 X11.2253 Y-11.2253
N96 G81 X0.0000   Y-15.8750
N97 G81 X-11.2253 Y-11.2253

N98 G80


N125 G0  Z1.0000 

( *** Cutout Circle ***)

N130 M5
N135 M30

