N5 (File Name = motor_plate_cnc on Monday, February 14, 2011)
N10 (Default Mill Post)
N15  G91.1
N20 G0  Z1.0000 
N25 M3 
N30  X54.9984  Y86.7484 
N35  Z0.1000 
N40 G81  X54.9984  Y86.7484  Z0.0000  R1.0000  F60.00 
N45 X31.7500  Y142.8750 
N50 X54.9984  Y199.0016 
N55 X111.1250  Y222.2500 
N60 G80 
N65 G0 
N70  X86.4306  Y251.2214 
N75  Z0.0000 
N80 G1  X222.2500  Y282.1776   
N85 G2  X222.2500  Y3.5724  I31.7500  J-139.3026 
N90 G1  X86.4306  Y34.5286   
N95 G2  X86.4306  Y251.2214  I24.6944  J108.3464 
N100 G0  Z1.0000 
N105  X169.8101  Y227.0649 
N110  Z0.1000 
N115 G81  X169.8101  Y227.0649  Z0.0000  R1.0000  F60.00 
N120 X167.2516  Y199.0016 
N125 X111.1250  Y142.8750 
N130  Y63.5000 
N135 X169.8101  Y58.6851 
N140 X167.2516  Y86.7484 
N145 X254.0000  Y80.3750 
N150  Y23.8125 
N155 X338.1899  Y58.6851 
N160 X373.0625  Y142.8750 
N165 X338.1899  Y227.0649 
N170 G80 
N175 G0 
N180  X284.7089  Y194.9821 
N185  Z0.1000 
N190 G1  Z0.0000  
N195 G3  X287.9959  Y207.2493  I1.6435  J6.1336 
N200  X220.0041  Y207.2494  I-33.9959  J-126.8744 
N205  X223.2911  Y194.9821  I1.6435  J-6.1336 
N210 G2  X284.7089  Y194.9821  I30.7089  J-114.6071 
N215 G0  Z1.0000 
N220  X278.6074  Y172.2109 
N225  Z0.1000 
N230 G1  Z0.0000  
N235 G2  X261.7450  Y109.2799  I-8.4312  J-31.4655 
N240 G3  X246.2550  Y109.2798  I-7.7450  J-28.9048 
N245 G2  X229.3926  Y172.2109  I-8.4312  J31.4655 
N250  X278.6074  Y172.2109  I24.6074  J-91.8359 
N255 G0  Z1.0000 
N260  X254.0000  Y259.6799 
N265  Z0.1000 
N270 G81  X254.0000  Y259.6799  Z0.0000  R1.0000  F60.00 
N275 G80 
N280 G0  Z1.0000 
N285 M5
N290 M30

