N5 (File Name = motor_plate2 on Friday, February 18, 2011)
N10 (Default Mill Post)
N15  G91.1
N20 G0  Z1.0000

N25 M3 
N30  X-15.8750  Y0.0000
N35  Z0.1000 

( *** drill hole pattern *** )

M1 ( Insert Center Drill Bit )

G81 X-15.8750 Y0.0000  Z-0.2500  R1.0000  F60.00
G81 X-11.2253 Y11.2253
G81 X0.0000   Y15.8750
G81 X11.7370  Y16.8380
G81 X11.2253  Y11.2253

G81 X28.5750 Y23.8125
G81 X45.4130 Y16.8380
G81 X53.3875 Y0.0000
G81 X45.4130 Y-16.8380
G81 X28.5750 Y-23.8125
G81 X28.5750 Y-12.5
G81 X11.7370  Y-16.8380

G81 X11.2253 Y-11.2253
G81 X0.0000   Y-15.8750
G81 X-11.2253 Y-11.2253

G80

M1 ( Insert Drill Bit )

G81 X-15.8750 Y0.0000  Z-3.2500  R1.0000  F60.00
G81 X-11.2253 Y11.2253
G81 X0.0000   Y15.8750
G81 X11.7370  Y16.8380
G81 X11.2253  Y11.2253

G81 X28.5750 Y23.8125
G81 X45.4130 Y16.8380
G81 X53.3875 Y0.0000
G81 X45.4130 Y-16.8380
G81 X28.5750 Y-23.8125
G81 X28.5750 Y-12.5
G81 X11.7370  Y-16.8380

G81 X11.2253 Y-11.2253
G81 X0.0000   Y-15.8750
G81 X-11.2253 Y-11.2253

G80

N125 G0  Z1.0000 

( *** Cutout screw slot ***)

N70 G0  Z1.0000 
N75  X34.6346  Y10.1147 
N80  Z0.1000 
N85 G1  Z0.0000  
N90 G3  X35.4564  Y13.1815  I0.4109  J1.5334 
N95  X21.6936  Y13.1816  I-6.8814  J-25.6816 
N100  X22.5154  Y10.1147  I0.4109  J-1.5334 
N105 G2  X34.6346  Y10.1147  I6.0596  J-22.6147 
N110 G0  Z1.0000 
N115  X-4.9389  Y-21.6693 
N120  Z0.1000

( *** Cutout motor slot ***)

N30  X17.8200  Y-2.4408 
N35  Z0.1000 
N40 G1  Z0.0000  F60.00 
N45 G2  X23.3249  Y7.0939  I7.5198  J2.0149 
N50  X33.8252  Y7.0939  I5.2502  J-19.5939 
N55  X29.7953  Y-7.9457  I-2.0149  J-7.5198 
N60 G3  X27.3547  Y-7.9458  I-1.2203  J-4.5542 
N65 G2  X17.8200  Y-2.4408  I-2.0149  J7.5198 
N70 G0  Z1.0000 

( *** Cutout Perimeter ***)
N110 G0  Z1.0000 
N115  X-4.9389  Y-21.6693 
N120  Z0.1000 
N125 G1  Z0.0000  
N130 G2  X-4.9389  Y21.6693  I4.9389  J21.6693 
N135 G1  X22.2250  Y27.8605   
N140 G2  X22.2250  Y-27.8605  I6.3500  J-27.8605 
N145 G1  X-4.9388  Y-21.6692   
N150 G0  Z1.0000 

N130 M5
N135 M30

