N5 (File Name = motor_plate2 on Friday, February 18, 2011)
N10 (Default Mill Post)
N15  G91.1
N20 G0  Z1.0000

N25 M3 
N30  X-15.8750  Y0.0000
N35  Z0.1000 

( *** drill hole pattern *** )

M1 ( Insert Center Drill Bit )

N90 G81 X-15.8750 Y0.0000  Z-0.2500  R1.0000  F60.00
N91 G81 X-11.2253 Y11.2253
N93 G81 X11.2253  Y11.2253
N94 G81 X15.8750 Y0.0000
N95 G81 X11.2253 Y-11.2253
N97 G81 X-11.2253 Y-11.2253

N98 G80

M1 ( Insert Drill Bit )

N90 G81 X-15.8750 Y0.0000  Z-3.2500  R1.0000  F60.00
N91 G81 X-11.2253 Y11.2253
N93 G81 X11.2253  Y11.2253
N94 G81 X15.8750 Y0.0000
N95 G81 X11.2253 Y-11.2253
N97 G81 X-11.2253 Y-11.2253

N98 G80

N125 G0  Z1.0000 

( *** Cutout Circle ***)
M1 ( Insert 1/8 end mill )

(G00G43 H1 Z0.5)

G00 X21.4312 Y-1.1906
G01 Z-0.5 F15.7
G42 P0.79375
G01 X20.2406 F31.4
G02 X19.05 Y0 R1.1906
G03 X-19.05 Y0 R19.05
X19.05 Y0 R19.05
G02 X20.2406 Y1.1906 R1.1906
G40
G00 Z0.5
G00 X21.4312 Y-1.1906
G01 Z-1 F15.7
G42 P0.79375
G01 X20.2406 F31.4
G02 X19.05 Y0 R1.1906
G03 X-19.05 Y0 R19.05
X19.05 Y0 R19.05
G02 X20.2406 Y1.1906 R1.1906
G40
G00 Z0.5
G00 X21.4312 Y-1.1906
G01 Z-1.5 F15.7
G42 P0.79375
G01 X20.2406 F31.4
G02 X19.05 Y0 R1.1906
G03 X-19.05 Y0 R19.05
X19.05 Y0 R19.05
G02 X20.2406 Y1.1906 R1.1906
G40
G00 Z0.5
G00 X21.4312 Y-1.1906
G01 Z-2 F15.7
G42 P0.79375
G01 X20.2406 F31.4
G02 X19.05 Y0 R1.1906
G03 X-19.05 Y0 R19.05
X19.05 Y0 R19.05
G02 X20.2406 Y1.1906 R1.1906
G40
G00 Z0.5
G00 X21.4312 Y-1.1906
G01 Z-2.5 F15.7
G42 P0.79375
G01 X20.2406 F31.4
G02 X19.05 Y0 R1.1906
G03 X-19.05 Y0 R19.05
X19.05 Y0 R19.05
G02 X20.2406 Y1.1906 R1.1906
G40
G00 Z0.5
G00 X21.4312 Y-1.1906
G01 Z-3 F15.7
G42 P0.79375
G01 X20.2406 F31.4
G02 X19.05 Y0 R1.1906
G03 X-19.05 Y0 R19.05
X19.05 Y0 R19.05
G02 X20.2406 Y1.1906 R1.1906
G40
G00 Z0.5
G00 X21.4312 Y-1.1906
G01 Z-3.25 F15.7
G42 P0.79375
G01 X20.2406 F31.4
G02 X19.05 Y0 R1.1906
G03 X-19.05 Y0 R19.05
X19.05 Y0 R19.05
G02 X20.2406 Y1.1906 R1.1906
G40
G00 Z0.5

N130 M5
N135 M30

