(Code by Newfangled Wizard, 3/14/2011)
(Program Posted for Aluminum )
G0 G49 G40.1 G17
G80 G50 G90 G98  
G21 (mm)

(***** Circular Pocket *****)
(TOOL DIA. 9.425)

G00 Z0.1
X4.24125 Y0
G01 Z0 F50
G02 X-4.2413 Y0 Z-0.5 R4.2413
G01 X0 Y0
G3 Y0 X5.66 R2.83 F100
Y0 X-5.655 R5.655
Y0 X6.2875 R5.9712
Y0 X-6.2875 R6.2875
X6.2875 Y0 R6.2875
Y3.1437 X3.1437 R3.1437
G00 Z0.1
X4.24125 Y0
G01 Z-0.5 F50
G02 X-4.2413 Y0 Z-0.92 R4.2413
G01 X0 Y0
G3 Y0 X5.66 R2.83 F100
Y0 X-5.655 R5.655
Y0 X6.2875 R5.9712
Y0 X-6.2875 R6.2875
X6.2875 Y0 R6.2875
Y3.1437 X3.1437 R3.1437
G00 Z0.1

M30
